packages/core/src/svgs/gzil.svg

<svg width="24" height="24" viewBox="0 0 24 24" fill="none" xmlns="http://www.w3.org/2000/svg">
<g clip-path="url(#clip0_31_11191)">
<path d="M0 0H24V24H0V0Z" fill="#F0F3FA"/>
<path d="M9.96007 6H13.5901L13.6801 6.00857C14.5801 6.02571 15.4801 6.07286 16.3672 6.23571C16.8686 6.32571 17.3529 6.46286 17.8072 6.69429C18.0916 6.82594 18.3465 7.0138 18.5564 7.24654C18.7663 7.47929 18.9269 7.75211 19.0286 8.04857C19.2129 8.59286 19.2858 9.15 19.2858 9.72V9.85714H16.2858L16.2729 9.56571C16.2665 9.49328 16.2536 9.42156 16.2344 9.35143C16.0072 8.50286 14.6401 8.58 13.9586 8.57143C12.6129 8.57143 11.2629 8.57143 9.91721 8.58C9.14578 8.58857 8.3915 8.76 8.00578 9.49714C7.82164 9.87696 7.72221 10.2923 7.71436 10.7143H11.5286L11.4215 10.7786C10.1872 11.5371 9.01293 12.3729 7.77864 13.1271C7.72721 13.1571 7.70578 13.1914 7.71436 13.2471C7.74864 13.5386 7.76578 13.83 7.81721 14.1171C7.87293 14.4557 7.96293 14.7514 8.24578 14.9743C8.4515 15.1329 8.69578 15.2314 8.95293 15.2829C9.43721 15.39 9.92578 15.4243 10.4186 15.4286H13.1701C13.7958 15.4286 14.4472 15.4071 15.0686 15.3086C15.6558 15.21 16.2686 14.9571 16.2858 14.2671C16.3029 13.8986 16.2858 13.6586 16.2858 13.2857H12.0001L12.3001 13.11C13.5472 12.3429 14.9872 11.4771 16.2386 10.7143H19.2858V10.8771C19.2858 11.5114 19.2729 12.1457 19.2729 12.7843C19.2729 13.3286 19.2686 13.8729 19.2129 14.4214C19.1701 14.8757 19.1015 15.33 18.9558 15.7629C18.8536 16.1022 18.6846 16.4177 18.4586 16.6908C18.2326 16.9639 17.9543 17.189 17.6401 17.3529C17.2329 17.5671 16.7915 17.7 16.3329 17.7814C15.5529 17.9271 14.7644 17.9829 13.9672 17.9914C12.9086 18 11.8501 17.9957 10.7958 18C10.0501 18 9.30436 18 8.56293 17.9229C8.08484 17.8838 7.6114 17.8006 7.14864 17.6743C6.62728 17.5568 6.14866 17.2972 5.76587 16.9242C5.38309 16.5513 5.11109 16.0796 4.98007 15.5614C4.85042 15.0781 4.77142 14.5826 4.74436 14.0829L4.71436 13.68V10.8L4.72293 10.7357C4.75293 10.3371 4.77436 9.94286 4.81721 9.54857C4.86007 9.12 4.9415 8.70429 5.08293 8.29714C5.34007 7.58143 5.77721 7.01571 6.46293 6.64286C6.94721 6.38571 7.46578 6.24857 8.00578 6.15857C8.61864 6.06429 9.22721 6.01714 9.84864 6.00429C9.8915 6.00857 9.92578 6.00429 9.96007 6Z" fill="url(#paint0_linear_31_11191)"/>
<path d="M7.38428 13.0285L7.48285 12.647C7.49142 12.6042 7.51285 12.5785 7.55571 12.557C8.29285 12.2142 9.02999 11.8713 9.75856 11.5156C10.6628 11.0699 11.5628 10.6071 12.4586 10.1528L12.84 9.96419C12.8571 9.95562 12.8786 9.94705 12.9043 9.95134L7.58571 13.2213C7.51714 13.1656 7.45713 13.1099 7.38428 13.0585V13.0242V13.0285Z" fill="url(#paint1_linear_31_11191)"/>
<path d="M10.2427 14.3572C12.0941 13.2086 14.387 11.8629 16.2427 10.7144C16.3327 10.8215 16.2641 11.0058 16.3498 11.1172C16.3755 11.1472 16.3712 11.2029 16.3755 11.2458C16.3841 11.3186 16.4098 11.4001 16.3798 11.4515C16.3498 11.4986 16.2641 11.5201 16.1998 11.5501C14.3355 12.4372 12.1027 13.4658 10.2427 14.3572Z" fill="url(#paint2_linear_31_11191)"/>
</g>
<defs>
<linearGradient id="paint0_linear_31_11191" x1="12.0086" y1="17.8543" x2="12.0086" y2="5.95714" gradientUnits="userSpaceOnUse">
<stop stop-color="#009C8B"/>
<stop offset="0.5" stop-color="#3F2D87"/>
<stop offset="1" stop-color="#AA2B87"/>
</linearGradient>
<linearGradient id="paint1_linear_31_11191" x1="10.1443" y1="17.8542" x2="10.1443" y2="5.95705" gradientUnits="userSpaceOnUse">
<stop stop-color="#009C8B"/>
<stop offset="0.5" stop-color="#3F2D87"/>
<stop offset="1" stop-color="#AA2B87"/>
</linearGradient>
<linearGradient id="paint2_linear_31_11191" x1="13.4612" y1="17.8544" x2="13.4612" y2="5.95721" gradientUnits="userSpaceOnUse">
<stop stop-color="#009C8B"/>
<stop offset="0.5" stop-color="#3F2D87"/>
<stop offset="1" stop-color="#AA2B87"/>
</linearGradient>
<clipPath id="clip0_31_11191">
<rect width="24" height="24" fill="white"/>
</clipPath>
</defs>
</svg>

<svg xmlns="http://www.w3.org/2000/svg" width="24" height="24" fill="none" viewBox="0 0 24 24"><g clip-path="url(#a)"><path fill="#F0F3FA" d="M0 0h24v24H0z"/><path fill="url(#b)" d="M9.96 6h3.63l.09.009c.9.017 1.8.064 2.687.227.502.09.986.227 1.44.458A2.32 2.32 0 0 1 19.03 8.05c.184.544.257 1.101.257 1.671v.137h-3l-.013-.291a1.2 1.2 0 0 0-.039-.215c-.227-.848-1.594-.771-2.275-.78-1.346 0-2.696 0-4.042.009-.771.009-1.525.18-1.911.917-.184.38-.284.795-.292 1.217h3.815l-.107.065c-1.235.758-2.41 1.594-3.643 2.348-.052.03-.073.064-.065.12.035.292.052.583.103.87.056.339.146.634.429.857.205.159.45.257.707.309a7 7 0 0 0 1.466.146h2.751c.626 0 1.277-.022 1.899-.12.587-.099 1.2-.352 1.217-1.042.017-.368 0-.608 0-.981H12l.3-.176c1.247-.767 2.687-1.633 3.939-2.396h3.047v.163c0 .634-.013 1.269-.013 1.907 0 .545-.004 1.089-.06 1.637-.043.455-.111.909-.257 1.342a2.66 2.66 0 0 1-1.316 1.59 4.5 4.5 0 0 1-1.307.428c-.78.146-1.569.202-2.366.21-1.058.009-2.117.005-3.171.009-.746 0-1.492 0-2.233-.077a8 8 0 0 1-1.414-.249 2.89 2.89 0 0 1-2.169-2.113 7.2 7.2 0 0 1-.236-1.478l-.03-.403V10.8l.009-.064c.03-.399.051-.793.094-1.187.043-.429.124-.845.266-1.252.257-.716.694-1.281 1.38-1.654.484-.257 1.003-.394 1.543-.484a14 14 0 0 1 1.843-.155c.043.005.077 0 .111-.004"/><path fill="url(#c)" d="m7.384 13.029.099-.382c.008-.043.03-.069.073-.09.737-.343 1.474-.686 2.203-1.041.904-.446 1.804-.909 2.7-1.363l.381-.189a.1.1 0 0 1 .064-.013l-5.318 3.27c-.069-.055-.129-.111-.202-.162v-.035z"/><path fill="url(#d)" d="M10.243 14.357c1.851-1.148 4.144-2.494 6-3.643.09.107.021.292.107.403.025.03.021.086.025.129.01.073.035.154.005.205-.03.048-.116.07-.18.1-1.864.886-4.097 1.915-5.957 2.806"/></g><defs><linearGradient id="b" x1="12.009" x2="12.009" y1="17.854" y2="5.957" gradientUnits="userSpaceOnUse"><stop stop-color="#009C8B"/><stop offset=".5" stop-color="#3F2D87"/><stop offset="1" stop-color="#AA2B87"/></linearGradient><linearGradient id="c" x1="10.144" x2="10.144" y1="17.854" y2="5.957" gradientUnits="userSpaceOnUse"><stop stop-color="#009C8B"/><stop offset=".5" stop-color="#3F2D87"/><stop offset="1" stop-color="#AA2B87"/></linearGradient><linearGradient id="d" x1="13.461" x2="13.461" y1="17.854" y2="5.957" gradientUnits="userSpaceOnUse"><stop stop-color="#009C8B"/><stop offset=".5" stop-color="#3F2D87"/><stop offset="1" stop-color="#AA2B87"/></linearGradient><clipPath id="a"><path fill="#fff" d="M0 0h24v24H0z"/></clipPath></defs></svg>
